X: 26946
T: Miss Campbell
R: jig
M: 6/8
K: Dmajor
B|:A^GB A2F|D3 D2B|AFA d2e|f3 fga|gfg Bed|
c3 c2B|1 Ace afd|f3 f2B:|2 Ace aec|d3deg||
|:fed cBA|f3 fag|fed cBA|F3 FGF|
EFE EFG|e2e e2d|cBA ABc|1 d3 dag:|2 d3 dAG||
|:FAA BAG|FAd fdA|BGB gfe|B3 BAG|
FAA BAG|FAd f2a|gfg ABc|1 d3 dAG:|2 d3 f/g/a2||
|:a^gb a2f|d3 f/g/a2|DFA dfa|ce2 e2f|gfg Bed|
c3 c2B|1 Ace afd|f3 f/g/a2:|2 Ace aec|d6||

